!!!OTL: 52l. Leichter Wanderer.
!!!ODT: 1855 (um)
!!!ARE: Europa, Mitteleuropa, Deutschland
!!!SCT: B0521
!!!TXL: @@DE
!!!YEM: Copyright 1995, estate of Helmut Schaffrath.
**kern	**text
*ICvox	*
*Ivox	*
*clefG2	*
*M2/4	*
*k[f#]	*
*G:	*
!LO:TX:a:t=Mäßig bewegt.	!
{8b	Ein
=1	=1
8b	Hel-
8b	-ler
8b	und
8b	ein
=2	=2
8cc	Ba-
8cc	-tʒen
8r}	.
{8b	war'n
=3	=3
8a	all'
8a	ʒwei
8.dd	bei-
16cc	-de
=4	=4
4b	mein.
8r}	.
{8b	Der
=5	=5
8b	Hel-
8b	-ler
8b	ward
8b	ʒu
=6	=6
8a/L	Waſ-
8ddJ	.
8dd}	-ſer,
{8b	der
=7	=7
8.a	Ba-
16g	-tʒen
8f#	ward
8e	ʒu
=8	=8
4d	Wein.
4r}	.
=9||	=9||
{8d	Juch-
8cc	-hei-
4a	-di!
=10	=10
8d	juch-
8b	-hei-
4g}	-da!
=11	=11
{8.cc	val-
16b	-le-
8cc	-ri
8ee	juch-
=12	=12
4dd	-hei!
8r}	.
{8cc	Der
=13	=13
8b	Hel-
8b	-ler
8b	ward
8b	ʒu
=14	=14
8ddL	Waſ-
8ccJ	.
8b}	-ſer,
{8a	der
=15	=15
8g	Ba-
8g	-tʒen
8b	ward
8a	ʒu
=16	=16
4g	Wein.
8r}	.
==	==
!!!AGN: Wander - Lied
!!!GTL: Wanderlieder
!!!ONB: ESAC (Essen Associative Code) Database: BOEHME
!!!AMT: simple duple
!!!AIN: vox
!!!EED: Helmut Schaffrath
!!!EEV: 1.0
!!Neue Weiſe um 1855.
!!@@COMMENT:"Albert Graf von Schlippenbach 1830. Mit einer Moll mel. von Franʒ Kugler ʒuerſt in
!!deſſen "Liederbuch für Künſtler" 1838. (Abdr. in Schanʒ, Deutſches Liederbuch" 1848). Bei Fink
!!mit der Mel. von: "Es war ein jung, jung Ʒimmergeſell". - Die hierſtehende Mel. iſt die jetʒt
!!allgemein in Studentenliederbücher aufgenommene. Jm Naſſauiſchen fingt man auf dieſe Mel. ein
!!Jägerlied: "Jetʒt nehm' ich meine Büchſe"."
!!@@END:
!!!Text: Albert Graf von Schlippenbach 
!!!URL-scan: https://archive.org/details/BoehmeVtLieder1895/page/n413/mode/2up
!!!ENC: Anna Maria Matuszewska
!!!EEV: 2024/11/07
*-	*-
